X: 21693
M: C|
L: 1/8
K: G
(Bc) |\
d3g  edcB | dgfg edcB |\
d3g  edcB | dgfg edcB |\
gfgd ecAF | G2G2 G2 :|
|: (Bc) |\
   d3e edcB  | e2e2 e4 |\
{B}c3e dBGB  | dgfa ggg2 |\
  dBdg eceg  | fdef g>fga |\
 g>fed c>AFD | G2G2 G2 :|


